X: 1
T: Dann's Bar
Z: Niallito
S: https://thesession.org/tunes/15259#setting28414
R: reel
M: 4/4
L: 1/8
K: Dmaj
A2|:dedB A2 FA|dedB AFED|B2 BA F2 ED|FDGF E2 A2|
dedB A2 FA|dedB AFED|G2 GA F2 ED|1 FAEA D2 A2:|2 FAEA D2 zf||
|:eAcA eAcA|eABc dcBf|eAcA eAcA|eABc dc B2|eAcA eAcA|
eABc dc B2|1 B2 BA F2 ED|FAEA D2 zf:|2 G2 GA F2 ED|FAEA D2||
